_includes/svg/youtube.svg

<svg width="48" height="48" xmlns="http://www.w3.org/2000/svg"><g fill-rule="nonzero" fill="none"><circle fill="#CA3737" cx="24" cy="24" r="24"/><path d="M35.2 18.5c0-.1 0-.2-.1-.3v-.1c-.3-.9-1.1-1.5-2.1-1.5h.2S29.3 16 24 16c-5.2 0-9.2.6-9.2.6h.2c-1 0-1.8.6-2.1 1.5v.1c0 .1 0 .2-.1.3-.1 1-.4 3.1-.4 5.5s.3 4.5.4 5.5c0 .1 0 .2.1.3v.1c.3.9 1.1 1.5 2.1 1.5h-.2s3.9.6 9.2.6c5.2 0 9.2-.6 9.2-.6H33c1 0 1.8-.6 2.1-1.5v-.1c0-.1 0-.2.1-.3.1-1 .4-3.1.4-5.5s-.2-4.5-.4-5.5zm-7.8 6l-4.7 3.4c-.1.1-.2.1-.3.1-.1 0-.2 0-.3-.1-.2-.1-.3-.3-.3-.5v-6.8c0-.2.1-.4.3-.5.2-.1.4-.1.6 0l4.7 3.4c.1.1.2.3.2.5.1.2 0 .4-.2.5z" fill="#FFF"/></g></svg>

<?xml version="1.0" encoding="UTF-8" standalone="no"?>
<svg width="48px" height="48px" viewBox="0 0 48 48" version="1.1" xmlns="http://www.w3.org/2000/svg" xmlns:xlink="http://www.w3.org/1999/xlink">
    <g id="Page-1" stroke="none" stroke-width="1" fill="none" fill-rule="evenodd">
        <g id="youtube" fill-rule="nonzero">
            <circle id="Oval" fill="#CA3737" cx="24" cy="24" r="24"></circle>
            <path d="M35.2,18.5 C35.2,18.4 35.2,18.3 35.1,18.2 C35.1,18.2 35.1,18.1 35.1,18.1 C34.8,17.2 34,16.6 33,16.6 L33.2,16.6 C33.2,16.6 29.3,16 24,16 C18.8,16 14.8,16.6 14.8,16.6 L15,16.6 C14,16.6 13.2,17.2 12.9,18.1 C12.9,18.1 12.9,18.2 12.9,18.2 C12.9,18.3 12.9,18.4 12.8,18.5 C12.7,19.5 12.4,21.6 12.4,24 C12.4,26.4 12.7,28.5 12.8,29.5 C12.8,29.6 12.8,29.7 12.9,29.8 C12.9,29.8 12.9,29.9 12.9,29.9 C13.2,30.8 14,31.4 15,31.4 L14.8,31.4 C14.8,31.4 18.7,32 24,32 C29.2,32 33.2,31.4 33.2,31.4 L33,31.4 C34,31.4 34.8,30.8 35.1,29.9 C35.1,29.9 35.1,29.8 35.1,29.8 C35.1,29.7 35.1,29.6 35.2,29.5 C35.3,28.5 35.6,26.4 35.6,24 C35.6,21.6 35.4,19.5 35.2,18.5 Z M27.4,24.5 L22.7,27.9 C22.6,28 22.5,28 22.4,28 C22.3,28 22.2,28 22.1,27.9 C21.9,27.8 21.8,27.6 21.8,27.4 L21.8,20.6 C21.8,20.4 21.9,20.2 22.1,20.1 C22.3,20 22.5,20 22.7,20.1 L27.4,23.5 C27.5,23.6 27.6,23.8 27.6,24 C27.7,24.2 27.6,24.4 27.4,24.5 Z" id="Shape" fill="#FFFFFF"></path>
        </g>
    </g>
</svg>
